public/assets/intercom.svg

<svg width="142" height="50" viewBox="0 0 142 50" fill="none" xmlns="http://www.w3.org/2000/svg">
<rect x="0.5" y="0.5" width="141" height="49" rx="6.5" fill="white" stroke="url(#paint0_linear_2329_166)"/>
<rect x="13" y="5" width="40" height="40" rx="8" fill="white"/>
<path d="M42.1251 26.2434C42.1251 26.7016 41.7536 27.0731 41.2954 27.0731C40.8373 27.0731 40.4658 26.7016 40.4658 26.2434V18.7813C40.4658 18.3231 40.8373 17.9516 41.2954 17.9516C41.7536 17.9516 42.1251 18.3231 42.1251 18.7813V26.2434ZM41.8355 31.4367C41.7074 31.5465 38.634 34.1255 32.9992 34.1255C27.3643 34.1255 24.2911 31.5464 24.1629 31.4366C23.8151 31.1384 23.7748 30.6146 24.073 30.2666C24.3705 29.9194 24.8928 29.8783 25.2409 30.175C25.2896 30.2158 28.034 32.466 32.9992 32.4661C38.0268 32.4661 40.7287 30.1996 40.7555 30.1767C41.1026 29.8786 41.6273 29.9187 41.9253 30.2667C42.2236 30.6146 42.1833 31.1385 41.8355 31.4367ZM23.8732 18.7813C23.8732 18.3231 24.2447 17.9516 24.7028 17.9516C25.1611 17.9516 25.5324 18.3231 25.5324 18.7813V26.2434C25.5324 26.7015 25.1611 27.073 24.7028 27.073C24.2447 27.073 23.8732 26.7015 23.8732 26.2433V18.7813ZM28.0214 17.1219C28.0214 16.6637 28.3929 16.2922 28.851 16.2922C29.3092 16.2922 29.6807 16.6637 29.6807 17.1219V28.2061C29.6807 28.6643 29.3092 29.0358 28.851 29.0358C28.3929 29.0358 28.0214 28.6643 28.0214 28.2061V17.1219ZM32.1695 16.7021C32.1695 16.2437 32.541 15.8724 32.9992 15.8724C33.4573 15.8724 33.8288 16.2437 33.8288 16.7021V28.7325C33.8288 29.1907 33.4573 29.5622 32.9992 29.5622C32.541 29.5622 32.1695 29.1907 32.1695 28.7325V16.7021ZM36.3177 17.1219C36.3177 16.6637 36.6891 16.2922 37.1473 16.2922C37.6055 16.2922 37.9769 16.6637 37.9769 17.1219V28.2061C37.9769 28.6643 37.6055 29.0358 37.1473 29.0358C36.6891 29.0358 36.3177 28.6643 36.3177 28.2061V17.1219ZM42.3325 12.5586H23.6658C21.9476 12.5586 20.5547 13.9517 20.5547 15.6699L20.5548 34.3379C20.5548 36.0562 21.9476 37.4492 23.6658 37.4492H42.3325C44.0506 37.4492 45.4436 36.0562 45.4436 34.3379V15.6699C45.4436 13.9517 44.0506 12.5586 42.3325 12.5586Z" fill="#1F8DED"/>
<path d="M58.12 30V19.92H59.366V30H58.12ZM66.8493 30V26.213C66.8493 25.8537 66.8167 25.5083 66.7513 25.177C66.6907 24.8457 66.581 24.5493 66.4223 24.288C66.2683 24.022 66.0583 23.812 65.7923 23.658C65.531 23.504 65.1997 23.427 64.7983 23.427C64.4857 23.427 64.201 23.4807 63.9443 23.588C63.6923 23.6907 63.4753 23.8493 63.2933 24.064C63.1113 24.2787 62.969 24.5493 62.8663 24.876C62.7683 25.198 62.7193 25.5783 62.7193 26.017L61.9003 25.765C61.9003 25.0323 62.031 24.4047 62.2923 23.882C62.5583 23.3547 62.9293 22.951 63.4053 22.671C63.886 22.3863 64.4507 22.244 65.0993 22.244C65.5893 22.244 66.007 22.321 66.3523 22.475C66.6977 22.629 66.9847 22.8343 67.2133 23.091C67.442 23.343 67.6217 23.6277 67.7523 23.945C67.883 24.2577 67.974 24.5773 68.0253 24.904C68.0813 25.226 68.1093 25.5317 68.1093 25.821V30H66.8493ZM61.4593 30V22.44H62.5793V24.463H62.7193V30H61.4593ZM74.1502 30C73.7022 30.0887 73.2589 30.1237 72.8202 30.105C72.3862 30.091 71.9989 30.0047 71.6582 29.846C71.3176 29.6827 71.0586 29.4307 70.8812 29.09C70.7319 28.7913 70.6502 28.4903 70.6362 28.187C70.6269 27.879 70.6222 27.5313 70.6222 27.144V20.34H71.8682V27.088C71.8682 27.396 71.8706 27.6597 71.8752 27.879C71.8846 28.0983 71.9336 28.2873 72.0222 28.446C72.1902 28.7447 72.4562 28.9197 72.8202 28.971C73.1889 29.0223 73.6322 29.0083 74.1502 28.929V30ZM69.0892 23.469V22.44H74.1502V23.469H69.0892ZM78.6466 30.21C77.9046 30.21 77.256 30.0467 76.7006 29.72C76.15 29.3887 75.7206 28.929 75.4126 28.341C75.1046 27.7483 74.9506 27.0577 74.9506 26.269C74.9506 25.443 75.1023 24.729 75.4056 24.127C75.709 23.5203 76.1313 23.0537 76.6726 22.727C77.2186 22.3957 77.858 22.23 78.5906 22.23C79.3513 22.23 79.9976 22.405 80.5296 22.755C81.0663 23.105 81.4676 23.6043 81.7336 24.253C82.0043 24.9017 82.121 25.674 82.0836 26.57H80.8236V26.122C80.8096 25.1933 80.6206 24.5003 80.2566 24.043C79.8926 23.581 79.3513 23.35 78.6326 23.35C77.8626 23.35 77.277 23.5973 76.8756 24.092C76.4743 24.5867 76.2736 25.296 76.2736 26.22C76.2736 27.1113 76.4743 27.802 76.8756 28.292C77.277 28.782 77.8486 29.027 78.5906 29.027C79.09 29.027 79.524 28.9127 79.8926 28.684C80.2613 28.4553 80.5506 28.1263 80.7606 27.697L81.9576 28.11C81.6636 28.7773 81.2203 29.2953 80.6276 29.664C80.0396 30.028 79.3793 30.21 78.6466 30.21ZM75.8536 26.57V25.569H81.4396V26.57H75.8536ZM83.6421 30V22.44H84.7551V24.267L84.5731 24.029C84.6618 23.7957 84.7761 23.581 84.9161 23.385C85.0608 23.189 85.2218 23.028 85.3991 22.902C85.5951 22.7433 85.8168 22.622 86.0641 22.538C86.3114 22.454 86.5634 22.405 86.8201 22.391C87.0768 22.3723 87.3171 22.3887 87.5411 22.44V23.609C87.2798 23.539 86.9928 23.5203 86.6801 23.553C86.3674 23.5857 86.0781 23.7 85.8121 23.896C85.5694 24.0687 85.3804 24.2787 85.2451 24.526C85.1144 24.7733 85.0234 25.0417 84.9721 25.331C84.9208 25.6157 84.8951 25.9073 84.8951 26.206V30H83.6421ZM91.913 30.21C91.1477 30.21 90.4967 30.0397 89.96 29.699C89.428 29.3537 89.022 28.88 88.742 28.278C88.462 27.676 88.3174 26.99 88.308 26.22C88.3174 25.4313 88.4644 24.7383 88.749 24.141C89.0384 23.539 89.4514 23.07 89.988 22.734C90.5247 22.398 91.171 22.23 91.927 22.23C92.725 22.23 93.411 22.426 93.985 22.818C94.5637 23.21 94.951 23.7467 95.147 24.428L93.915 24.799C93.7564 24.3603 93.4974 24.0197 93.138 23.777C92.7834 23.5343 92.375 23.413 91.913 23.413C91.395 23.413 90.968 23.5343 90.632 23.777C90.296 24.015 90.0464 24.3463 89.883 24.771C89.7197 25.191 89.6357 25.674 89.631 26.22C89.6404 27.06 89.834 27.739 90.212 28.257C90.5947 28.7703 91.1617 29.027 91.913 29.027C92.4077 29.027 92.8184 28.915 93.145 28.691C93.4717 28.4623 93.719 28.1333 93.887 27.704L95.147 28.033C94.8857 28.7377 94.4774 29.2767 93.922 29.65C93.3667 30.0233 92.697 30.21 91.913 30.21ZM99.5906 30.21C98.8393 30.21 98.1906 30.0397 97.6446 29.699C97.1033 29.3583 96.6856 28.887 96.3916 28.285C96.0976 27.683 95.9506 26.9923 95.9506 26.213C95.9506 25.4197 96.1 24.7243 96.3986 24.127C96.6973 23.5297 97.1196 23.0653 97.6656 22.734C98.2116 22.398 98.8533 22.23 99.5906 22.23C100.347 22.23 100.998 22.4003 101.544 22.741C102.09 23.077 102.507 23.546 102.797 24.148C103.091 24.7453 103.238 25.4337 103.238 26.213C103.238 27.0017 103.091 27.697 102.797 28.299C102.503 28.8963 102.083 29.3653 101.537 29.706C100.991 30.042 100.342 30.21 99.5906 30.21ZM99.5906 29.027C100.375 29.027 100.958 28.7657 101.341 28.243C101.723 27.7203 101.915 27.0437 101.915 26.213C101.915 25.359 101.721 24.68 101.334 24.176C100.946 23.6673 100.365 23.413 99.5906 23.413C99.0633 23.413 98.6293 23.532 98.2886 23.77C97.948 24.008 97.6936 24.337 97.5256 24.757C97.3576 25.177 97.2736 25.6623 97.2736 26.213C97.2736 27.0623 97.4696 27.7437 97.8616 28.257C98.2536 28.7703 98.83 29.027 99.5906 29.027ZM113.816 30L113.823 25.163C113.823 24.5983 113.671 24.1573 113.368 23.84C113.069 23.518 112.679 23.357 112.199 23.357C111.919 23.357 111.653 23.4223 111.401 23.553C111.149 23.679 110.943 23.8797 110.785 24.155C110.626 24.4257 110.547 24.7733 110.547 25.198L109.889 24.932C109.879 24.3953 109.989 23.9263 110.218 23.525C110.451 23.119 110.768 22.804 111.17 22.58C111.571 22.356 112.024 22.244 112.528 22.244C113.316 22.244 113.937 22.4843 114.39 22.965C114.842 23.441 115.069 24.0827 115.069 24.89L115.062 30H113.816ZM104.772 30V22.44H105.885V24.463H106.025V30H104.772ZM109.301 30L109.308 25.212C109.308 24.6333 109.158 24.1807 108.86 23.854C108.561 23.5227 108.164 23.357 107.67 23.357C107.18 23.357 106.783 23.525 106.48 23.861C106.176 24.197 106.025 24.6427 106.025 25.198L105.367 24.806C105.367 24.316 105.483 23.8773 105.717 23.49C105.95 23.1027 106.267 22.7993 106.669 22.58C107.07 22.356 107.525 22.244 108.034 22.244C108.542 22.244 108.986 22.3513 109.364 22.566C109.742 22.7807 110.033 23.0887 110.239 23.49C110.444 23.8867 110.547 24.3603 110.547 24.911L110.54 30H109.301Z" fill="#475367"/>
<defs>
<linearGradient id="paint0_linear_2329_166" x1="71" y1="1" x2="71" y2="49" gradientUnits="userSpaceOnUse">
<stop stop-color="#E4E7EC"/>
<stop offset="1" stop-color="white"/>
</linearGradient>
</defs>
</svg>

<svg xmlns="http://www.w3.org/2000/svg" width="142" height="50" fill="none" xmlns:v="https://vecta.io/nano"><g fill="#fff"><rect x=".5" y=".5" width="141" height="49" rx="6.5" stroke="url(#A)"/><rect x="13" y="5" width="40" height="40" rx="8"/></g><path d="M42.125 26.243a.83.83 0 0 1-.83.83.83.83 0 0 1-.83-.83v-7.462a.83.83 0 0 1 .83-.83.83.83 0 0 1 .83.83v7.462zm-.29 5.193c-.128.11-3.202 2.689-8.836 2.689s-8.708-2.579-8.836-2.689a.83.83 0 0 1-.09-1.17.83.83 0 0 1 1.168-.092c.049.041 2.793 2.291 7.758 2.291 5.028 0 7.73-2.266 7.756-2.289a.83.83 0 0 1 1.17.09.83.83 0 0 1-.09 1.17zM23.873 18.781a.83.83 0 0 1 .83-.83.83.83 0 0 1 .83.83v7.462a.83.83 0 0 1-.83.83.83.83 0 0 1-.83-.83v-7.462zm4.148-1.659a.83.83 0 0 1 .83-.83.83.83 0 0 1 .83.83v11.084a.83.83 0 0 1-.83.83.83.83 0 0 1-.83-.83V17.122zm4.148-.42a.83.83 0 0 1 .83-.83.83.83 0 0 1 .83.83v12.03a.83.83 0 0 1-.83.83.83.83 0 0 1-.83-.83v-12.03zm4.148.42a.83.83 0 0 1 .83-.83.83.83 0 0 1 .83.83v11.084a.83.83 0 0 1-.83.83.83.83 0 0 1-.83-.83V17.122zm6.015-4.563H23.666a3.11 3.11 0 0 0-3.111 3.111v18.668a3.11 3.11 0 0 0 3.111 3.111h18.667a3.11 3.11 0 0 0 3.111-3.111V15.67a3.11 3.11 0 0 0-3.111-3.111z" fill="#1f8ded"/><path d="M58.12 30V19.92h1.246V30H58.12zm8.729 0v-3.787a5.34 5.34 0 0 0-.098-1.036c-.061-.331-.17-.628-.329-.889a1.7 1.7 0 0 0-.63-.63c-.261-.154-.593-.231-.994-.231-.313 0-.597.054-.854.161a1.67 1.67 0 0 0-.651.476 2.31 2.31 0 0 0-.427.812c-.098.322-.147.702-.147 1.141l-.819-.252c0-.733.131-1.36.392-1.883a2.86 2.86 0 0 1 1.113-1.211c.481-.285 1.045-.427 1.694-.427.49 0 .908.077 1.253.231s.632.359.861.616.408.537.539.854.222.632.273.959a5.36 5.36 0 0 1 .084.917V30h-1.26zm-5.39 0v-7.56h1.12v2.023h.14V30h-1.26zm12.691 0a5.6 5.6 0 0 1-1.33.105c-.434-.014-.821-.1-1.162-.259a1.67 1.67 0 0 1-.777-.756c-.149-.299-.231-.6-.245-.903l-.014-1.043V20.34h1.246v6.748l.007.791a1.26 1.26 0 0 0 .147.567c.168.299.434.474.798.525s.812.037 1.33-.042V30zm-5.061-6.531V22.44h5.061v1.029h-5.061zm9.557 6.741c-.742 0-1.391-.163-1.946-.49s-.98-.791-1.288-1.379-.462-1.283-.462-2.072c0-.826.152-1.54.455-2.142s.726-1.073 1.267-1.4 1.185-.497 1.918-.497c.761 0 1.407.175 1.939.525s.938.849 1.204 1.498.387 1.421.35 2.317h-1.26v-.448c-.014-.929-.203-1.622-.567-2.079s-.905-.693-1.624-.693c-.77 0-1.356.247-1.757.742s-.602 1.204-.602 2.128c0 .891.201 1.582.602 2.072s.973.735 1.715.735c.499 0 .933-.114 1.302-.343s.658-.558.868-.987l1.197.413a3.39 3.39 0 0 1-1.33 1.554c-.588.364-1.248.546-1.981.546zm-2.793-3.64v-1.001h5.586v1.001h-5.586zM83.642 30v-7.56h1.113v1.827l-.182-.238c.089-.233.203-.448.343-.644s.306-.357.483-.483a2.14 2.14 0 0 1 .665-.364c.247-.084.499-.133.756-.147s.497-.002.721.049v1.169a2.36 2.36 0 0 0-.861-.056 1.75 1.75 0 0 0-.868.343 1.87 1.87 0 0 0-.567.63 2.73 2.73 0 0 0-.273.805c-.051.285-.077.576-.077.875V30h-1.253zm8.271.21c-.765 0-1.416-.17-1.953-.511s-.938-.819-1.218-1.421-.425-1.288-.434-2.058c.009-.789.156-1.482.441-2.079a3.31 3.31 0 0 1 1.239-1.407c.537-.336 1.183-.504 1.939-.504.798 0 1.484.196 2.058.588a2.83 2.83 0 0 1 1.162 1.61l-1.232.371c-.159-.439-.418-.779-.777-1.022s-.763-.364-1.225-.364c-.518 0-.945.121-1.281.364s-.586.569-.749.994-.247.903-.252 1.449c.009.84.203 1.519.581 2.037s.95.77 1.701.77c.495 0 .905-.112 1.232-.336s.574-.558.742-.987l1.26.329c-.261.705-.67 1.244-1.225 1.617s-1.225.56-2.009.56zm7.678 0c-.751 0-1.4-.17-1.946-.511s-.959-.812-1.253-1.414-.441-1.293-.441-2.072c0-.793.149-1.489.448-2.086s.721-1.062 1.267-1.393 1.188-.504 1.925-.504c.756 0 1.407.17 1.953.511s.963.805 1.253 1.407.441 1.286.441 2.065c0 .789-.147 1.484-.441 2.086a3.38 3.38 0 0 1-1.26 1.407c-.546.336-1.195.504-1.946.504zm0-1.183c.784 0 1.367-.261 1.75-.784s.574-1.199.574-2.03c0-.854-.194-1.533-.581-2.037s-.969-.763-1.743-.763c-.527 0-.961.119-1.302.357s-.595.567-.763.987-.252.905-.252 1.456c0 .849.196 1.531.588 2.044s.968.77 1.729.77zm14.225.973l.007-4.837c0-.565-.152-1.006-.455-1.323s-.689-.483-1.169-.483a1.71 1.71 0 0 0-.798.196c-.252.126-.458.327-.616.602s-.238.618-.238 1.043l-.658-.266c-.01-.537.1-1.006.329-1.407s.55-.721.952-.945.854-.336 1.358-.336c.788 0 1.409.24 1.862.721s.679 1.118.679 1.925l-.007 5.11h-1.246zm-9.044 0v-7.56h1.113v2.023h.14V30h-1.253zm4.529 0l.007-4.788c0-.579-.15-1.031-.448-1.358s-.696-.497-1.19-.497-.887.168-1.19.504-.455.782-.455 1.337l-.658-.392c0-.49.116-.929.35-1.316a2.47 2.47 0 0 1 .952-.91 2.75 2.75 0 0 1 1.365-.336c.508 0 .952.107 1.33.322a2.18 2.18 0 0 1 .875.924c.205.397.308.87.308 1.421L110.54 30h-1.239z" fill="#475367"/><defs><linearGradient id="A" x1="71" y1="1" x2="71" y2="49" gradientUnits="userSpaceOnUse"><stop stop-color="#e4e7ec"/><stop offset="1" stop-color="#fff"/></linearGradient></defs></svg>
